src/assets/images/home/icons/alerts.svg

<svg width="21" height="17" viewBox="0 0 21 17" fill="none" xmlns="http://www.w3.org/2000/svg">
<path d="M16.4451 7.88867V9.88867H20.4451V7.88867H16.4451ZM14.4451 14.4987C15.4051 15.2087 16.6551 16.1487 17.6451 16.8887C18.0451 16.3587 18.4451 15.8187 18.8451 15.2887C17.8551 14.5487 16.6051 13.6087 15.6451 12.8887C15.2451 13.4287 14.8451 13.9687 14.4451 14.4987ZM18.8451 2.48867C18.4451 1.95867 18.0451 1.41867 17.6451 0.888672C16.6551 1.62867 15.4051 2.56867 14.4451 3.28867C14.8451 3.81867 15.2451 4.35867 15.6451 4.88867C16.6051 4.16867 17.8551 3.23867 18.8451 2.48867ZM2.44507 5.88867C1.34507 5.88867 0.445068 6.78867 0.445068 7.88867V9.88867C0.445068 10.9887 1.34507 11.8887 2.44507 11.8887H3.44507V15.8887H5.44507V11.8887H6.44507L11.4451 14.8887V2.88867L6.44507 5.88867H2.44507ZM13.9451 8.88867C13.9451 7.55867 13.3651 6.35867 12.4451 5.53867V12.2287C13.3651 11.4187 13.9451 10.2187 13.9451 8.88867Z" fill="#F6F8FB"/>
</svg>

<svg fill="none" xmlns="http://www.w3.org/2000/svg" viewBox="0 0 21 17"><path d="M16.45 7.89v2h4v-2h-4Zm-2 6.6 3.2 2.4 1.2-1.6-3.2-2.4-1.2 1.6Zm4.4-12-1.2-1.6-3.2 2.4 1.2 1.6 3.2-2.4Zm-16.4 3.4a2 2 0 0 0-2 2v2c0 1.1.9 2 2 2h1v4h2v-4h1l5 3v-12l-5 3h-4Zm11.5 3c0-1.33-.58-2.53-1.5-3.35v6.69a4.44 4.44 0 0 0 1.5-3.34Z" fill="#F6F8FB"/></svg>
